X:63
T:Nun's Dance. THO5.063, The
M:2/4
L:1/8
B:Thompson's Complete Collection of 200 Favourite Dances Vol.5
F:https://www.libraryofdance.org/manuals/1780c-Thompson-Compleat-5.pdf
Z:vmp. Peter Dunk 2024
Q:1/4=120
K:F
c|fcBA|dBAG|cFEF|(G/F/G/A/) Gc|
fcBA|dBAG|cF (A/G/F/E/)|F3:|
|:c|dBdf|cAcf|BGcB|BAAc|
dBdf|eceg|bgfe|f3:|
W:
W:Hands four across, The same back again ./.
W:Lead down two Couples,Lead up and cast off ./:
W:Turn corners :/.
W:Lead outsides :/:

